X:1
T:Insbruch, ich muss dich lassen
T:Heinrich Isaac (c. 1450 – 26 March 1517 
T:Insbruch, ich muss dich lassen
C:Heinrich Isaac
C:(c. 1450 – 26 March 1517
C:
%%score [ 1 2 3 4 ]
L:1/8
M:2/2
K:Bb
V:1 treble nm="P1"
V:2 treble nm="P2"
V:3 treble-8 transpose=-12 nm="P3"
V:4 bass nm="P4"
V:1
"^Original pitch a fourth lower""^1.""^3.""^1.""^3.""^1.""^3.""^1.""^3." z4 B4 | B2 c2 d4 | f4 e4 | %3
w: Ins-|bruch, ich muss|dich las-|
w: Mein|trost ob al-|len Wei-|
 d4 z2 d2 | f3 e c4 | d4 B4 | A4 z2 B2 | c2 B2 A2 B2 | c4 z2 c2 | B2 c2 d4 | f4 e4 | d4 z2 d2 | %12
w: sen, ich|fahr da- hin|mein Stras-|sen In|frem- de Land da-|hin. Mein|Freud ist mir|ge- nom-|men, die|
w: ben, dein|tu ich e-|wig blei-|ben, stet|treu, der Eh- ren|fromm. Nun|muss dich Gott|be- wahr-|en, in|
 f3 e c4 | d4 B4 | A4 z2 A2 | B2 c2 d4 | e3 d cB c2- | cB B4 A2 | B4 z2 A2 | B2 c2 d4 | %20
w: ich nit weiss|be- kom-|men, wo|ich im E-||* * * lend|bin, wo|ich im E-|
w: al- ler tu-|gend spar-|ren, bis|dass ich wie-||* * * der|komm, bis|dass ich wie-|
 e3 d cB c2- | cB B4 A2 |"^2.""^2.""^2." B8 || B6 A"^2."G | F4 G4 | F2 B4 A2 | %26
w: |* * * lend|bin.|Gross leid _|muss ich|jetzt tra- *|
w: |* * * der|komm.||||
 B3"^Insbruch, p 2" G A2 F2 | G4 C2 A2- | AG F4 E2 | F8 | z2 F3 E D2 | C2 F2 E4 | D4 z4 | %33
w: gen, das ich al-|lein tu kla-||gen|dem leib- *|sten buh- len|mein.|
w: |||||||
 z2 B2 G2 A2 | B3 G A2 F2 | G4 C2 A2 | AG F4 =E2 | F4 z2 B,2 | D2 CDEF G2 | FGAB G2 E2 | %40
w: Ach Leib, nun|lass mich Ar- men|im Her- zen|dein er- bar- *|men, dass|ich mus _ _ _ _|dan- * * * * nen|
w: |||||||
 !fermata!F8 || %41
w: sein.|
w: |
V:2
 F8 | G2 A2 B4 | F2 B4 A2 | B4 z2 F2 | D2 D2 E4 | D2 D4 CB, | C4 z2 G2 | G2 G2 F2 G2 | E4 z2 G2 | %9
w: Ins-|bruch, ich muss|dich las- *|sen, ich|fahr da- hin|mein Stras- * *|sen In|frem- de Land da-|hin. Mein|
w: Mein|trost ob al-|len Wei- *|ben, dein|tu ich e-|wig blei- * *|ben, stet|treu, der Eh- ren|fromm. Nun|
 G2 A2 B4 | F2 B4 A2 | B4 z2 F2 | D2 D2 E4 | D2 D4 CB, | C4 z2 c2 | B2 A2 B4- | B3 A GF G2 | %17
w: Freud ist mir|ge- nom- *|men, die|ich nit weiss|be- kom- * *|men, wo|ich im E-||
w: muss dich Gott|be- wahr- *|en, in|al- ler tu-|gend spar- * *|ren, bis|dass ich wie-||
 F2 E2 F4 | F4 z2 c2 | B2 A2 B4- | B3 A GF G2 | F2 E2 F4 | D8 || z8 | B,4 B,2 C2 | D2 F2 E4 | %26
w: * * lend|bin, wo|ich im E-||* * lend|bin.||Gross leid muss|ich jetzt tra-|
w: * * der|komm, bis|dass ich wie-||* * der|komm.||||
 D4 z4 | z2 D2 F3 E | C2 D2 B,4 | A,4 z2 D2 | C3 B, A,2 B,2 | C4 z4 | z2 A,2 B,2 C2 | D2 F2 E4 | %34
w: gen|das ich al-|lein tu kla-|gen dem|lieb- sten buh- len|mein.|Ach Lieb, nun|lass mich Ar-|
w: ||||||||
 D4 z4 | z2 D2 F3 E | C2 D2 B,4 | A,2 F2 G4 | F2 A2 G4 | A2 c3 B B2- | B2 A2 !fermata!B4 || %41
w: men|im Her- zen|dein er- bar-|men, dass ich|muss dan- *||* nen sein.|
w: |||||||
V:3
 z4 d4 | d2 e2 f4 | d4 e4 | f4 z2 f2 | f3 g _a4 | g2 f4 =e2 | f4 z2 d2 | e2 d2 c2 d2 | c4 z2 c2 | %9
w: Ins-|bruch, ich muss|dich las-|sen, ich|fahr da- hin|mein Stras- *|sen In|frem- de Land da-|hin. Mein|
w: Mein|trost ob al-|len Wei-|ben, dein|tu ich e-|wig blei- *|ben, stet|treu, der Eh- ren|fromm. Nun|
 d2 e2 f4 | d4 e4 | f4 z2 f2 | f3 g _a4 | g2 f4 e2 | f4 z2 f2 | d2 e2 f4 | g2 e3 dcB | A2 B2 c4 | %18
w: Freud ist mir|ge- nom-|men, die|ich nit weiss|be\- kom- *|men, wo|ich im E-||* * lend|
w: muss dich Gott|be- wahr-|en, in|al- ler tu-|gend spar- *|ren, bis|dass ich wie-||* * der|
 B4 z2 f2 | d2 e2 f4 | g2 e3 dcB | A2 B2 c4 | B8 || B4 B2 c2 | d2 f2 e4 | d4 z2 c2 | f3 e c2 d2 | %27
w: bin, wo|ich im E-||* * lend|bin.|Gross leid muss|ich jetzt tra-|gen, das|ich al- lein tu|
w: komm, bis|dass ich wie-||* * der|komm.|||||
 B4 A4 | z4 z2 B2 | c3 B A2 B2 | c4 z4 | z2 A2 B2 c2 | d2 f2 e4 | d4 z2 c2 | f3 e c2 d2 | B4 A4 | %36
w: kal- gen||lieb- sten buh- len|mein.|Ach Lieb, nun|lass mich Ar-|men im|Her- zen dein er-|bar- men,|
w: |||||||||
 z4 z2 B2 | d2 c2 e2 d2 | f4 e4 | f4 B4 | c4 !fermata!B4 || %41
w: dass|ich muss _ _|dan- *||nen sein.|
w: |||||
V:4
 B,8 | G,2 C2 B,2 D2 | D2 CB, C4 | B,4 z2 B,2 | B,2 B,2 _A,4 | B,4 G,4 | F,4 z2 G,2 | %7
w: bruch,|* ich muss dich|las- * * *|sen, ich|fahr da- hin|mein Stras-|sen In|
w: Mein|* ob al- len|Wei- * * *|ben, dein|tu ich e-|wig blei-|ben, stet|
 C,2 G,2 A,2 G,2 | C,4 z2 C2 | G,2 C2 B,2 D2 | D2 CB, C4 | B,4 z2 B,2 | B,2 B,2 _A,4 | B,4 G,4 | %14
w: frem- de Land da-|hin. Mein|Freud ist mir ge-|nom- * * *|men, die|ich nit weiss|be- kom|
w: treu, der Eh- ren|fromm. Nun|muss dich Gott be-|wahr- * * *|en, in|al- ler tu-|gend spar-|
 F,4 z2 F,2 | G,2 C2 B,4 | E,4 z2 E,2 | F,2 G,2 F,4 | B,,4 z2 F,2 | G,2 C2 B,4 | E,4 z2 E,2 | %21
w: men, wo|ich im E-|lend, im|E- * lend|bin, wo|ich im E-|lend, im|
w: ren, bis|dass ich wei-|der, ich|wie- * der|komm, bis|dass ich wie-|der, ich|
 F,2 G,2 F,4 | B,,8 || B,4 G,2 A,2 | B,4 E,4 | B,4 C4 | B,4 A,2 B,2 | G,4 F,3 G, | A,2 B,2 G,4 | %29
w: E- * lend|bin.|Gross leid muss|ich jetzt|tra- gen,|das ich al-|lein tu _|kla- * *|
w: wie- * der|komm.|||||||
 F,4 z2 B,,2 | F,3 G, F,2 B,,2 | F,4 G,2 A,2 | B,2 F,2 G,2 A,2 | B,4 C4 | z2 B,2 A,2 B,2 | %35
w: gen dem|lieb- sten buh- len|mein, _ Ach|Lieb, nun lass mich|Ar- men|im Her- zen|
w: ||||||
 G,4 F,3 G, | A,2 B,2 G,4 | F,2 A,2 G,2 B,2- | B,2 A,2 C3 B, | A,G, F,2 G,4 | F,4 !fermata!B,,4 || %41
w: dein _ _|_ er- bar-|men, dass _ ich|_ muss dan- *||nen sein.|
w: ||||||

